svg/add-alarm.svg

<?xml version="1.0" encoding="UTF-8"?>
<svg xmlns="http://www.w3.org/2000/svg" xmlns:xlink="http://www.w3.org/1999/xlink" width="32" height="32" viewBox="0 0 32 32">
<defs>
<clipPath id="clip-0">
<path clip-rule="nonzero" d="M 2 0 L 30 0 L 30 32 L 2 32 Z M 2 0 "/>
</clipPath>
<clipPath id="clip-1">
<path clip-rule="nonzero" d="M 0 32 L 0 0 L 32 0 L 32 32 Z M 16.125 9.980469 C 12.746094 9.980469 9.980469 12.746094 9.980469 16.125 C 9.980469 19.503906 12.746094 22.269531 16.125 22.269531 C 19.503906 22.269531 22.269531 19.503906 22.269531 16.125 C 22.269531 12.746094 19.503906 9.980469 16.125 9.980469 M 16.125 9.980469 "/>
</clipPath>
</defs>
<g clip-path="url(#clip-0)">
<g clip-path="url(#clip-1)">
<path fill-rule="nonzero" fill="rgb(0%, 0%, 0%)" fill-opacity="1" d="M 16 0 C 14.585938 0 13.441406 1.148438 13.441406 2.5625 C 13.441406 3.976562 14.589844 5.121094 16.003906 5.121094 C 17.417969 5.121094 18.5625 3.972656 18.5625 2.558594 C 18.5625 1.144531 17.414062 0 16 0 M 12.398438 3.898438 C 9.476562 5.152344 7.679688 7.972656 7.679688 11.519531 C 7.679688 18.558594 5.246094 20.328125 3.800781 21.378906 C 3.15625 21.84375 2.558594 22.277344 2.558594 23.039062 C 2.558594 25.734375 6.578125 26.878906 16 26.878906 C 25.421875 26.878906 29.441406 25.734375 29.441406 23.039062 C 29.441406 22.277344 28.84375 21.84375 28.199219 21.378906 C 26.753906 20.328125 24.320312 18.558594 24.320312 11.519531 C 24.320312 7.960938 22.527344 5.148438 19.601562 3.898438 C 19.035156 5.398438 17.601562 6.394531 16 6.398438 C 14.359375 6.398438 12.949219 5.351562 12.398438 3.898438 M 12.160156 28.078125 L 12.160156 28.160156 C 12.164062 30.28125 13.878906 31.996094 16 32 C 18.121094 31.996094 19.835938 30.28125 19.839844 28.160156 L 19.839844 28.078125 C 17.28125 28.1875 14.71875 28.1875 12.160156 28.078125 M 12.160156 28.078125 "/>
</g>
</g>
<path fill-rule="nonzero" fill="rgb(0%, 0%, 0%)" fill-opacity="1" d="M 16.125 11.003906 C 13.308594 11.003906 11.003906 13.308594 11.003906 16.125 C 11.003906 18.941406 13.308594 21.246094 16.125 21.246094 C 18.941406 21.246094 21.246094 18.941406 21.246094 16.125 C 21.246094 13.308594 18.941406 11.003906 16.125 11.003906 M 18.632812 16.636719 L 16.636719 16.636719 L 16.636719 18.632812 C 16.636719 18.941406 16.433594 19.144531 16.125 19.144531 C 15.816406 19.144531 15.613281 18.941406 15.613281 18.632812 L 15.613281 16.636719 L 13.617188 16.636719 C 13.308594 16.636719 13.105469 16.433594 13.105469 16.125 C 13.105469 15.816406 13.308594 15.613281 13.617188 15.613281 L 15.613281 15.613281 L 15.613281 13.566406 C 15.613281 13.257812 15.816406 13.054688 16.125 13.054688 C 16.433594 13.054688 16.636719 13.257812 16.636719 13.566406 L 16.636719 15.613281 L 18.632812 15.613281 C 18.941406 15.613281 19.144531 15.816406 19.144531 16.125 C 19.144531 16.433594 18.941406 16.636719 18.632812 16.636719 M 18.632812 16.636719 "/>
</svg>

<svg role="img" viewBox="0 0 32 32" height="32" width="32" xmlns="http://www.w3.org/2000/svg"><defs><clipPath id="336__334__216__214__467__465__111__109__106__104__471__469__106__104__52__50__28__26__464__462__add-alarm_svg__svg/add-alarm.svg221__svg/add-alarm.svg217__clip-0"><path d="M2 0h28v32H2Zm0 0"/></clipPath><clipPath id="337__335__217__215__468__466__112__110__107__105__472__470__107__105__53__51__29__27__465__463__add-alarm_svg__svg/add-alarm.svg223__svg/add-alarm.svg219__clip-1"><path d="M0 32V0h32v32ZM16.125 9.98c-3.379 0-6.145 2.766-6.145 6.145 0 3.379 2.766 6.145 6.145 6.145 3.379 0 6.145-2.766 6.145-6.145 0-3.379-2.766-6.145-6.145-6.145m0 0"/></clipPath></defs><g clip-path="url(#336__334__216__214__467__465__111__109__106__104__471__469__106__104__52__50__28__26__464__462__add-alarm_svg__svg/add-alarm.svg221__svg/add-alarm.svg217__clip-0)"><g clip-path="url(#337__335__217__215__468__466__112__110__107__105__472__470__107__105__53__51__29__27__465__463__add-alarm_svg__svg/add-alarm.svg223__svg/add-alarm.svg219__clip-1)"><path d="M16 0a2.56 2.56 0 1 0 .004 5.121A2.56 2.56 0 0 0 16 0m-3.602 3.898C9.477 5.152 7.68 7.973 7.68 11.52c0 7.039-2.434 8.808-3.88 9.859-.644.465-1.241.898-1.241 1.66 0 2.695 4.02 3.84 13.441 3.84 9.422 0 13.441-1.145 13.441-3.84 0-.762-.597-1.195-1.242-1.66-1.445-1.05-3.879-2.82-3.879-9.86 0-3.558-1.793-6.37-4.718-7.62-.567 1.5-2 2.496-3.602 2.5-1.64 0-3.05-1.047-3.602-2.5m-.238 24.18v.081A3.844 3.844 0 0 0 16 32a3.844 3.844 0 0 0 3.84-3.84v-.082c-2.559.11-5.121.11-7.68 0m0 0"/></g></g><path d="M16.125 11.004c-2.816 0-5.121 2.305-5.121 5.121 0 2.816 2.305 5.121 5.121 5.121 2.816 0 5.121-2.305 5.121-5.121 0-2.816-2.305-5.121-5.121-5.121m2.508 5.633h-1.996v1.996c0 .308-.203.512-.512.512s-.512-.204-.512-.512v-1.996h-1.996c-.308 0-.512-.203-.512-.512s.204-.512.512-.512h1.996v-2.047c0-.308.203-.511.512-.511s.512.203.512.511v2.047h1.996c.308 0 .512.203.512.512s-.204.512-.512.512m0 0"/></svg>
